icons/square/48/turpial.svg

<?xml version="1.0" encoding="UTF-8" standalone="no"?>
<svg
   xmlns:dc="http://purl.org/dc/elements/1.1/"
   xmlns:cc="http://creativecommons.org/ns#"
   xmlns:rdf="http://www.w3.org/1999/02/22-rdf-syntax-ns#"
   xmlns:svg="http://www.w3.org/2000/svg"
   xmlns="http://www.w3.org/2000/svg"
   xmlns:xlink="http://www.w3.org/1999/xlink"
   xmlns:sodipodi="http://sodipodi.sourceforge.net/DTD/sodipodi-0.dtd"
   xmlns:inkscape="http://www.inkscape.org/namespaces/inkscape"
   viewBox="0 0 48 48"
   id="svg2"
   version="1.1"
   inkscape:version="0.48.4 r9939"
   width="100%"
   height="100%"
   sodipodi:docname="turpial.svg">
  <metadata
     id="metadata77">
    <rdf:RDF>
      <cc:Work
         rdf:about="">
        <dc:format>image/svg+xml</dc:format>
        <dc:type
           rdf:resource="http://purl.org/dc/dcmitype/StillImage" />
      </cc:Work>
    </rdf:RDF>
  </metadata>
  <sodipodi:namedview
     pagecolor="#ffffff"
     bordercolor="#666666"
     borderopacity="1"
     objecttolerance="10"
     gridtolerance="10"
     guidetolerance="10"
     inkscape:pageopacity="0"
     inkscape:pageshadow="2"
     inkscape:window-width="658"
     inkscape:window-height="480"
     id="namedview75"
     showgrid="false"
     inkscape:zoom="3.4766083"
     inkscape:cx="6.9018875"
     inkscape:cy="11.415512"
     inkscape:window-x="0"
     inkscape:window-y="0"
     inkscape:window-maximized="0"
     inkscape:current-layer="svg2" />
  <defs
     id="defs4">
    <linearGradient
       id="linearGradient3764"
       x1="1"
       x2="47"
       gradientUnits="userSpaceOnUse"
       gradientTransform="translate(-47.997785,0.00221467)">
      <stop
         stop-color="#4b4b4b"
         stop-opacity="1"
         id="stop7" />
      <stop
         offset="1"
         stop-color="#555"
         stop-opacity="1"
         id="stop9" />
    </linearGradient>
    <clipPath
       id="clipPath-685908154">
      <g
         transform="translate(0,-1004.3622)"
         id="g12">
        <rect
           rx="4"
           y="1005.36"
           x="1"
           height="46"
           width="46"
           fill="#1890d0"
           id="rect14" />
      </g>
    </clipPath>
    <clipPath
       id="clipPath-699486333">
      <g
         transform="translate(0,-1004.3622)"
         id="g17">
        <rect
           rx="4"
           y="1005.36"
           x="1"
           height="46"
           width="46"
           fill="#1890d0"
           id="rect19" />
      </g>
    </clipPath>
    <linearGradient
       inkscape:collect="always"
       xlink:href="#linearGradient3764"
       id="linearGradient3082"
       gradientUnits="userSpaceOnUse"
       gradientTransform="translate(-47.997785,0.00221467)"
       x1="1"
       x2="47" />
    <linearGradient
       inkscape:collect="always"
       xlink:href="#linearGradient3764"
       id="linearGradient3085"
       gradientUnits="userSpaceOnUse"
       gradientTransform="translate(-47.997785,0.00221467)"
       x1="1"
       x2="47" />
    <linearGradient
       inkscape:collect="always"
       xlink:href="#linearGradient3764"
       id="linearGradient3094"
       gradientUnits="userSpaceOnUse"
       gradientTransform="translate(-47.997785,0.00221467)"
       x1="1"
       x2="47" />
    <linearGradient
       inkscape:collect="always"
       xlink:href="#linearGradient3764"
       id="linearGradient3097"
       gradientUnits="userSpaceOnUse"
       gradientTransform="translate(-47.997785,0.00221467)"
       x1="1"
       x2="47" />
    <linearGradient
       inkscape:collect="always"
       xlink:href="#linearGradient3764"
       id="linearGradient3872"
       gradientUnits="userSpaceOnUse"
       gradientTransform="translate(-47.997785,0.00221467)"
       x1="1"
       x2="47" />
    <linearGradient
       inkscape:collect="always"
       xlink:href="#linearGradient3764"
       id="linearGradient3875"
       gradientUnits="userSpaceOnUse"
       gradientTransform="translate(-47.997785,0.00221467)"
       x1="1"
       x2="47" />
  </defs>
  <g
     id="g21">
    <g
       transform="translate(0,-1004.3622)"
       id="g23">
      <path
         d="m 5 1006.36 c -2.216 0 -4 1.784 -4 4 l 0 37.25 c 0 2.216 1.784 4 4 4 l 38 0 c 2.216 0 4 -1.784 4 -4 l 0 -37.25 c 0 -2.216 -1.784 -4 -4 -4 l -38 0 z m -4 41.5 0 0.5 c 0 2.216 1.784 4 4 4 l 38 0 c 2.216 0 4 -1.784 4 -4 l 0 -0.5 c 0 2.216 -1.784 4 -4 4 l -38 0 c -2.216 0 -4 -1.784 -4 -4 z"
         opacity="0.02"
         id="path25" />
      <path
         d="m 1 1047.61 0 0.25 c 0 2.216 1.784 4 4 4 l 38 0 c 2.216 0 4 -1.784 4 -4 l 0 -0.25 c 0 2.216 -1.784 4 -4 4 l -38 0 c -2.216 0 -4 -1.784 -4 -4 z"
         opacity="0.05"
         id="path27" />
      <rect
         width="46"
         height="46"
         x="1"
         y="1005.61"
         rx="4"
         opacity="0.1"
         id="rect29" />
    </g>
  </g>
  <g
     id="g31">
    <rect
       width="46"
       height="46"
       x="-46.998"
       y="1"
       rx="4"
       transform="matrix(0,-1,1,0,0,0)"
       id="rect33"
       fill-opacity="1"
       fill="url(#linearGradient3764)" />
  </g>
  <g
     id="g35" />
  <path
     style="fill:#ffd40f;fill-opacity:1;fill-rule:nonzero;stroke:none"
     d="M 47 17.1875 C 37.655033 33.431106 26.450977 40.924808 6.4375 47 L 43 47 C 45.216 47 47 45.216 47 43 L 47 17.1875 z "
     id="path63" />
  <path
     style="fill:#ffffff;fill-opacity:1;fill-rule:nonzero;stroke:none"
     d="M 17.75 1 C 10.768515 6.5034176 5.1794569 13.256381 1 20.40625 L 1 34.03125 C 5.7251004 21.51637 15.32126 8.5415958 28.90625 1 L 17.75 1 z "
     id="path65" />
  <path
     style="fill:#a8a8a8;fill-opacity:1;fill-rule:nonzero;stroke:none"
     d="M 39.875 1 C 35.759631 17.899043 19.548052 33.186424 1 39.84375 L 1 43 C 15.04799 38.017653 40.978233 19.86464 43.96875 1.15625 C 43.657 1.078761 43.336389 1 43 1 L 39.875 1 z "
     id="path67" />
  <g
     id="g69">
    <g
       transform="translate(0,-1004.3622)"
       id="g71">
      <path
         d="m 1 1043.36 0 4 c 0 2.216 1.784 4 4 4 l 38 0 c 2.216 0 4 -1.784 4 -4 l 0 -4 c 0 2.216 -1.784 4 -4 4 l -38 0 c -2.216 0 -4 -1.784 -4 -4 z"
         opacity="0.1"
         id="path73" />
    </g>
  </g>
</svg>

<svg version="1.1" viewBox="0 0 48 48" xmlns="http://www.w3.org/2000/svg" xmlns:xlink="http://www.w3.org/1999/xlink">
 <defs>
  <linearGradient id="linearGradient3764" x1="1" x2="47" gradientTransform="translate(-47.998 .0022147)" gradientUnits="userSpaceOnUse">
   <stop stop-color="#4b4b4b" offset="0"/>
   <stop stop-color="#555" offset="1"/>
  </linearGradient>
 </defs>
 <g transform="translate(0 -1004.4)">
  <path d="m5 1006.4c-2.216 0-4 1.784-4 4v37.25c0 2.216 1.784 4 4 4h38c2.216 0 4-1.784 4-4v-37.25c0-2.216-1.784-4-4-4h-38zm-4 41.5v0.5c0 2.216 1.784 4 4 4h38c2.216 0 4-1.784 4-4v-0.5c0 2.216-1.784 4-4 4h-38c-2.216 0-4-1.784-4-4z" opacity=".02"/>
  <path d="m1 1047.6v0.25c0 2.216 1.784 4 4 4h38c2.216 0 4-1.784 4-4v-0.25c0 2.216-1.784 4-4 4h-38c-2.216 0-4-1.784-4-4z" opacity=".05"/>
  <rect x="1" y="1005.6" width="46" height="46" rx="4" opacity=".1"/>
 </g>
 <rect transform="rotate(-90)" x="-46.998" y="1" width="46" height="46" rx="4" fill="url(#linearGradient3764)"/>
 <path d="m47 17.188c-9.345 16.244-20.549 23.737-40.562 29.812h36.562c2.216 0 4-1.784 4-4v-25.812z" style="fill:#ffd40f"/>
 <path d="m17.75 1c-6.9815 5.5034-12.571 12.256-16.75 19.406v13.625c4.7251-12.515 14.321-25.49 27.906-33.031h-11.156z" style="fill:#fff"/>
 <path d="m39.875 1c-4.1154 16.899-20.327 32.186-38.875 38.844v3.1562c14.048-4.9823 39.978-23.135 42.969-41.844-0.31175-0.077489-0.63236-0.15625-0.96875-0.15625h-3.125z" style="fill:#a8a8a8"/>
 <g transform="translate(0 -1004.4)">
  <path d="m1 1043.4v4c0 2.216 1.784 4 4 4h38c2.216 0 4-1.784 4-4v-4c0 2.216-1.784 4-4 4h-38c-2.216 0-4-1.784-4-4z" opacity=".1"/>
 </g>
</svg>
